X:1
T:Title
%%score { 1 | 2 }
L:1/8
Q:1/4=92
M:2/4
K:F
V:1 treble nm="Grand Piano"
V:2 bass 
V:1
 F>F FF | FA c2 | [Ec][EB] [EG]2 | cA F2 | F>F FF | FA c2 | cG e2 |[M:5/8] d=B [CEc]3 | %8
w: J.~Lincoln~Hall * * *||||||||
[M:2/4] B>A GF | ED C2 | F>E FG | AB c2 | d>d cA | [Gc][GB] A2 | GA B2 |[M:5/8] DE F3 | %16
w: ||||||||
[M:2/4] [EG]2 [FA]2 | [EB]2 E2 | F>E FA | c4 | [EG]2 [FA]2 | [EB]2 E2 | F>E Fd | c4 | B>A GF | %25
w: |||||||||
 ED C2 | F>E FG | AB c2 | d>d cA | [Gc][GB] A2 | GA B2 |[M:5/8] DE F3 |] %32
w: |||||||
V:2
 [F,A,C]>[F,A,C] [F,A,C][F,B,D] | [F,A,C][F,CF] [F,A,F]2 | [C,G,][C,G,] [C,C]2 | %3
 [F,A,F][F,CF] [F,A,]2 | [F,A,C]>[F,A,C] [F,A,C][F,B,D] | [F,A,C][K:treble][F,CF] [F,A,F]2 | %6
 [G,CE][G,CE] [G,CG]2 |[M:5/8] [G,=B,F][G,DF][K:bass] C,3 |[M:2/4] B,>A, G,F, | E,D, C,2 | %10
 [F,A,C]>[F,G,C] [F,A,C][F,B,E] | [F,CF][G,CE] [A,CF]2 | [B,F]>[B,F] [A,CF][K:bass][F,CF] | %13
 [E,C][E,C] [F,CF]2 | [B,D][K:treble][A,D^F] [G,DG]2 |[M:5/8][K:bass] [G,B,][C,B,C] [F,A,C]3 | %16
[M:2/4] [C,C]2 [C,C]2 | [C,G,]2 [C,B,C]2 | [F,A,C]>[F,G,C] [F,A,C][F,CF] | [F,A,F]4 | %20
 [C,C]2 [C,C]2 | [C,G,]2 [C,B,C]2 | [F,A,C]>[F,G,C] [F,A,C][F,_A,F] | [F,A,F]4 | B,>A, G,F, | %25
 E,D, C,2 | [F,A,C]>[F,G,C] [F,A,C][F,B,E] | [F,CF][G,CE] [A,CF]2 | %28
 [B,F]>[B,F] [A,CF][K:bass][F,CF] | [E,C][E,C] [F,CF]2 | [B,D][K:treble][D^F] [G,DG]2 | %31
[M:5/8][K:bass] [G,B,][C,B,C] [F,A,C]3 |] %32

